X: 1
T: String Quartet in D Major opus 71 no 2 mvt 3
C: Franz Joseph Haydn
%%abc-version 2.0
%%abcx-abcm2ps-target-version 5.9.1 (29 Sep 2008)
%%abc-creator hum2abc beta
%%abcx-conversion-date 2021/02/14 14:38:32
%%abc-copyright Copyright (c) 1994, 2000 Center for Computer Assisted Research in the Humanities
%%abc-edited-by Frances Bennion
%%abcx-initial-encoding-date 1997/04/15
%%gracespace 0 6 6
%%humdrum-veritas 3720135691
%%humdrum-veritas-data 3857427867
%%linebreak <none>
%%barnumbers 0
L: 1/4
M: 3/4
N: Derived from op71n2-03.krn
Q: "Menuetto: Allegro"
%%staves [1 2 3 4]
V: 1
V: 2
V: 3 clef=alto
V: 4 clef=bass
K: D
[V:1]z3 [I:setbarnb2] |
[V:2]z3 |
[V:3]z3 |
[V:4]D, A,, F,, |
[V:1]A d f |
[V:2]z3 |
[V:3]z3 |
[V:4]D,, z2 |
[V:1]a3/ f//d// A/z/ |
[V:2]F F F |
[V:3]D, F A |
[V:4]D D D |
[V:1]a3/ g//e// A/z/ |
[V:2]G G E |
[V:3]E E G |
[V:4]C C C |
[V:1]f g e |
[V:2]D E C |
[V:3]D B, A, |
[V:4]D G, A, |
[V:1]d f a |
[V:2]z3 |
[V:3]z3 |
[V:4]z3 |
[V:1]d'3/ a//f// d/z/ |
[V:2]A3 |
[V:3]=C C C |
[V:4]F, F, F, |
[V:1]d'3/ b//g// d/z/ |
[V:2]B3 |
[V:3]B, B, B, |
[V:4]G, G, G, |
[V:1]f g e |
[V:2]d e c |
[V:3]A,3 |
[V:4]A,3 |
[V:1]d3/ A//F// D/z/ |
[V:2]d3/ A//F// D/z/ |
[V:3]D3/ A,//F,// D,/z/ |
[V:4]D3/ A,//F,// D,/z/ |
[V:1]B d ^G |
[V:2]z2 =F |
[V:3]z2 D |
[V:4]z3 |
[V:1]A3/ c//e// a/z/ |
[V:2]E C z |
[V:3]C A, z |
[V:4]z3 |
[V:1]z2 =F |
[V:2]z2 D- |
[V:3]z3 |
[V:4]B, D ^G, |
[V:1]E A F |
[V:2]D C =C- |
[V:3]z3 |
[V:4]A,3/ E,//C,// A,,/z/ |
[V:1]D G E |
[V:2]C B,2 |
[V:3]z2 G, |
[V:4]G,3/ D,//B,,// G,,/z/ |
[V:1]C D E |
[V:2]A,2 E- |
[V:3]E, F, A, |
[V:4]G, F, C, |
[V:1]G F A- |
[V:2]E D F- |
[V:3]A,2 F, |
[V:4]D,3/ A,,//F,,// D,,/z/ |
[V:1]A G F |
[V:2]F E D |
[V:3]B, G, ^G, |
[V:4]G,,/B,,//D,// G, ^G, |
[V:1]E F G |
[V:2]C D E |
[V:3]A,2 G, |
[V:4]A,2 z |
[V:1]A d f |
[V:2]F z2 |
[V:3]F, z2 |
[V:4]D, z2 |
[V:1]a3/ f//d// A/z/ |
[V:2]A, D F |
[V:3]F, A, D |
[V:4]D, z2 |
[V:1]a3/ g//e// A/z/ |
[V:2]G, E G |
[V:3]E, C E |
[V:4]C, z2 |
[V:1]f g e |
[V:2]D E C |
[V:3]D B, A, |
[V:4]D, G,, A,, |
[V:1]d f a |
[V:2]z3 |
[V:3]z3 |
[V:4]z3 |
[V:1]d'3/ a//f// d/z/ |
[V:2]=C A =c |
[V:3]A, F A |
[V:4]F,, z2 |
[V:1]d'3/ b//g// d/z/ |
[V:2]B, G B |
[V:3]G, B, G |
[V:4]G,, z2 |
[V:1]f g e |
[V:2]d e c |
[V:3]A, z2 |
[V:4]A,,3 |
[V:1]d3/ A//F// D/z/ |
[V:2]d3/ A//F// D/z/ |
[V:3]D3/ A,//F,// D,/z/ |
[V:4]D,3/ A,,//F,,// D,,/z/ |
[V:1]F3 |
[V:2]D3 |
[V:3]z ^A, B, |
[V:4]z3 |
[V:1]G3 |
[V:2]E3 |
[V:3]z ^D, E, |
[V:4]z3 |
[V:1]E3 |
[V:2]C3 |
[V:3]z ^G, A, |
[V:4]z3 |
[V:1]A3 |
[V:2]F3 |
[V:3]z C, D, |
[V:4]z3 |
[V:1]z d c |
[V:2]^A3 |
[V:3]G3 |
[V:4]E3 |
[V:1]z e d |
[V:2]B3 |
[V:3]F3 |
[V:4]D3 |
[V:1]z f e |
[V:2]^G3 |
[V:3]D3 |
[V:4]B,3 |
[V:1]z b a |
[V:2]A3 |
[V:3]C3 |
[V:4]A,3 |
[V:1]g3 |
[V:2]z d c |
[V:3]z B ^A |
[V:4]z3 |
[V:1]f3 |
[V:2]z C D |
[V:3]z3 |
[V:4]z ^A, B, |
[V:1]=f3 |
[V:2]z =c B |
[V:3]z A ^G |
[V:4]z3 |
[V:1]e3 |
[V:2]z B, C |
[V:3]z3 |
[V:4]z ^G, A, |
[V:1]d3 |
[V:2]F3 |
[V:3]z ^A, B, |
[V:4]z3 |
[V:1]e3 |
[V:2]G3 |
[V:3]z ^D, E, |
[V:4]z3 |
[V:1]c3 |
[V:2]E3 |
[V:3]z3 |
[V:4]z ^G,, A,, |
[V:1]d3 |
[V:2]F3 |
[V:3]z3 |
[V:4]z C,, D,, |
[V:1]z C D |
[V:2]B3 |
[V:3]G3 |
[V:4]z3 |
[V:1]z c' d' |
[V:2]A3 |
[V:3]F3 |
[V:4]z3 |
[V:1]z ^G, A, |
[V:2]G3 |
[V:3]E3 |
[V:4]z3 |
[V:1]z c' d' |]
[V:2]F3 |]
[V:3]D3 |]
[V:4]z3 |]

